X:4953
T:Paddy O'Rafferty
O:england
R:Jig
S:Seamus Creagh (fiddle)
D:Session tape - Doolin, 198?
M:6/8
K:A
Ecc EBB | Ecc BAF | Ecc EBB | ABA AFD | Ecc EBB | ABc d2f | ecA BAF |
ABA AFE :: +ce++Ae++AF++E2A2+F | A2c BAB | cAF E2F | ABA AFE | cAF E2F |
ABc d2f |  ecA BAF | ABA AFE :: AcE AcE | Ace fed | ceA ceA | ABA AFE |
AcE AcE | Ace a2e | fec ~B3 | ABA AFE :: Ace a2e | fef aec | Ace aec |
ABA AFE | Ace a2e | fef a2e | fec ~B3 | ABA AFE :: cEE BEE | ABc dcB |
cEE BEE | ABA AFE | cEE BEE | ABc d2f | ecA BAF | ABA AFE :||


